X: 35
T:Sally's Fancy. JB.35
M:4/4
L:1/8
Q:120
S:James Biggins MS, Leeds, 1779.
R:Misc.
O:England
A:Yorkshire
Z:
Z:vmp.Nick Barber & Chris Partingto
K:D
G|FDd2cAg2|facd e/d/c/B/ AG|FDd2cAg2|faAcd2D:|!
|:g|fda2ecg2|fdcd e/d/c/B/ Ag|fd f/g/a ec e/f/g|fdecd3:|!
|:G|FDGE AFBG|gefd e/d/c/B/ Ag|fdge afbg|faAcd2D:|]
